X:18476
T:Waltz. CJF.137
M:3/8
L:1/16
Q:50
S: C.J.Fox MS, 1829/33, Beverley,E.Yorks.
R:Waltz
O:England
A:East Yorkshire
B:Kidson Coll.Mitchell Lib.M1805
N:The key signature is given as an e-flat followed by a B-flat in the MS.
N:The note marked with a letter "c" is also marked thus in the |MS. - PJH
Z:P J Headford 2000
K:Bb
F2|B2BABA|B2d2f2|f2^f2a2|c4(cd)|!\
edgfed|cdedcB|A>gf>ed>c|{c2}B4:||:!dB|
AcecAc|BABcde|fgabag|{g2}f4(gf)|!\
ede"c"cdc|e>gf>ed>c|BdfecA|{c2}B4:||


